src/lib/packages/icons/src/assets/filled/file-edit.svg

<svg xmlns="http://www.w3.org/2000/svg" width="24" height="24" fill="none"><path fill="currentColor" d="M14.75 6V3.75l4.5 4.5H17c-1.58 0-2.25-.67-2.25-2.25ZM20 9.75V18c0 2-1 3-3 3H8c-2 0-3-1-3-3V6c0-2 1-3 3-3h5.25v3c0 2.42 1.33 3.75 3.75 3.75h3Zm-5.28 4.77-2.24-2.24-3.98 4v2.22h2.22l4-3.98Zm1.52-2.77-.99-.99a.887.887 0 0 0-1.26 0l-.81.82 2.24 2.24.82-.81c.35-.35.35-.91 0-1.26Z"/></svg>

<svg width="24" height="24" viewBox="0 0 24 24" fill="none" xmlns="http://www.w3.org/2000/svg">
<path d="M14.75 6V3.75L19.25 8.25H17C15.42 8.25 14.75 7.58 14.75 6ZM20 9.75V18C20 20 19 21 17 21H8C6 21 5 20 5 18V6C5 4 6 3 8 3H13.25V6C13.25 8.42 14.58 9.75 17 9.75H20ZM14.72 14.52L12.48 12.28L8.5 16.28V18.5H10.72L14.72 14.52ZM16.24 11.75L15.25 10.76C14.9 10.41 14.34 10.41 13.99 10.76L13.1799 11.58L15.4199 13.82L16.24 13.01C16.59 12.66 16.59 12.1 16.24 11.75Z" fill="currentColor"/>
</svg>
